X:1
T:Colima, 11.11.11 D
T:Colima, 11.11.11 D
T:William Fiske Sherwin, 1881
T:Public Domain Courtesy of the Cyber Hymnal™
C:William Fiske Sherwin, 1881
Z:Public Domain
Z:Courtesy of the Cyber Hymnal™
%%score 1 ( 2 3 )
L:1/8
Q:1/4=110
M:4/4
K:G
V:1 treble 
V:2 bass 
V:3 bass 
V:1
 [GB]2 [DG]2 [Ac]2 [FA]2 | [Gd]4 [GB]4 | [FA]2 [DF]2 [DG]2 [GB]2 | [FA]6 z2 | %4
 [GB]2 [DG]2 [Fc]2 [FA]2 | [Gd]4 [GB]4 | [EA]2 [Ac]2 [GB]2 [DFA]2 | [DG]6 z2 | %8
 [EG]2 [CE]2 [EG]2 [EA]2 | [DB]4 [DB]4 | [Dd]2 [E^c]2 [FB]2 [E^A]2 | [DB]6 z2 | %12
 [Dc]2 [DA]2 [Fd]2 [Ac]2 | [GB]4 [DG]4 | [CE]2 [EG]2 [DF]2 [CA]2 | [B,G]6 z2 | %16
 [GB]2 [DG]2 [Ac]2 [FA]2 | [Gd]4 [GB]4 | [FA]2 [DF]2 [DG]2 [GB]2 | [FA]6 z2 | %20
 [GB]2 [DG]2 [Fc]2 [FA]2 | [Gd]4 [GB]4 | [EA]2 [Ac]2 [GB]2 [DA]2 | [DG]6 z2 |] %24
V:2
 [G,D]2 [G,B,]2 [D,D]2 [C,D]2 | D4 D4 | [CD]2 [A,C]2 B,2 [G,D]2 | [D,D]6 z2 | %4
 [G,D]2 [G,B,]2 [D,A,]2 [C,D]2 | [B,,D]4 [G,,D]4 | [C,C]2 [A,,E]2 [D,D]2 [D,C]2 | [G,,B,]6 z2 | %8
 [C,G,]2 [C,G,]2 [C,G,]2 [C,G,]2 | [G,,G,]4 G,4 | [F,B,]2 [F,^C]2 [F,D]2 [F,C]2 | [B,,B,]6 z2 | %12
 [D,F,]2 [D,F,]2 [D,A,]2 [F,D]2 | [G,D]4 [B,,G,]4 | [C,G,]2 [C,C]2 [D,A,]2 [D,F,]2 | [G,,G,]6 z2 | %16
 [G,D]2 [G,B,]2 [D,D]2 [C,D]2 | D4 D4 | [CD]2 [A,D]2 [B,D]2 [G,D]2 | [D,D]6 z2 | %20
 [G,D]2 [G,B,]2 [D,A,]2 [C,D]2 | [B,,D]4 [G,,D]4 | [C,C]2 [A,,E]2 [D,D]2 [D,C]2 | [G,,B,]6 z2 |] %24
V:3
 x8 | (B,,2 D,2) (G,2 B,2) | x4 B,2 x2 | x8 | x8 | x8 | x8 | x8 | x8 | x4 G,4 | x8 | x8 | x8 | x8 | %14
 x8 | x8 | x8 | (B,,2 D,2) (G,2 B,2) | x8 | x8 | x8 | x8 | x8 | x8 |] %24

